icons/plexis/48/lantern.svg

<svg viewBox="0 0 48 48" xmlns="http://www.w3.org/2000/svg" xmlns:xlink="http://www.w3.org/1999/xlink">
  <linearGradient id="a" gradientTransform="matrix(0 -1 1 0 -.0000015 47.999998)" gradientUnits="userSpaceOnUse" x1="1" x2="47">
    <stop offset="0" stop-color="#4eb8ca"/>
    <stop offset="1" stop-color="#5dbecf"/>
  </linearGradient>
  <radialGradient id="b" cx="24" cy="27.9" gradientTransform="matrix(1 0 0 1.2375 0 -7.62625)" gradientUnits="userSpaceOnUse" r="8">
    <stop offset="0" stop-color="#f9ed6f"/>
    <stop offset="1" stop-color="#f8e950"/>
  </radialGradient>
  <path d="m47 24c0 22.703-.297 23-23 23-22.703 0-23-.297-23-23 0-22.703.297-23 23-23 22.703 0 23 .297 23 23z" fill="url(#a)"/>
  <path d="m25 10a2 2 0 0 0-2 2 2 2 0 0 0  .213.895l-2.213 1.105v2l-3 1-1 3.5c0 3.137.762 14.523 6 16.869v.131l2 .5 2-.5v-.12c5.24-2.32 6-13.743 6-16.88l-1-3.5-3-1v-2l-2.211-1.105a2 2 0 0 0  .211-.895 2 2 0 0 0-2-2m0 1a1 1 0 0 1 1 1 1 1 0 0 1-.107.447l-.893-.447-.89.447a1 1 0 0 1-.11-.447 1 1 0 0 1  1-1" opacity=".1"/>
  <path d="m24 9a2 2 0 0 0-2 2 2 2 0 0 0  2 2 2 2 0 0 0  2-2 2 2 0 0 0-2-2zm0 1a1 1 0 0 1 1 1 1 1 0 0 1-1 1 1 1 0 0 1-1-1 1 1 0 0 1  1-1z" fill="#1a303e"/>
  <path d="m16 19.5c6-3.5 10-3.5 16 0 0 3.5-.944 17.324-8 17.3-7.06-.024-8-13.8-8-17.3" fill="url(#b)"/>
  <path d="m20 13l4-2 4 2v2l3 1 1 3.5-6-1.5v18.5l-2 .5-2-.5v-18.5l-6 1.5 1-3.5 3-1z" fill="#1a303e"/>
</svg>

<svg xmlns="http://www.w3.org/2000/svg" viewBox="0 0 48 48">
 <defs>
  <linearGradient id="linearGradient3764" x1="1" x2="47" gradientUnits="userSpaceOnUse" gradientTransform="matrix(0,-1,1,0,-1.5e-6,47.999998)">
   <stop style="stop-color:#4eb8ca;stop-opacity:1"/>
   <stop offset="1" style="stop-color:#5dbecf;stop-opacity:1"/>
  </linearGradient>
  <radialGradient id="radialGradient4274" cx="24" cy="27.9" r="8" gradientTransform="matrix(1,0,0,1.2375,0,-7.62625)" gradientUnits="userSpaceOnUse">
   <stop style="stop-color:#f9ed6f;stop-opacity:1"/>
   <stop offset="1" style="stop-color:#f8e950;stop-opacity:1"/>
  </radialGradient>
 </defs>
 <g>
  
  
  
 </g>
 <g>
  <path d="m 47,24 C 47,46.703 46.703,47 24,47 1.297,47 1,46.703 1,24 1,1.297 1.297,1 24,1 46.703,1 47,1.297 47,24 z" style="fill:url(#linearGradient3764);fill-opacity:1"/>
 </g>
 <g>
  
 </g>
 <path d="m 25 10 a 2 2 0 0 0 -2 2 2 2 0 0 0 0.213 0.895 L 21 14 l 0 2 -3 1 -1 3.5 c 0 3.137 0.762 14.523 6 16.869 L 23 37.5 25 38 27 37.5 27 37.38 C 32.24 35.06 33 23.637 33 20.5 L 32 17 29 16 29 14 26.789 12.895 A 2 2 0 0 0 27 12 2 2 0 0 0 25 10 m 0 1 a 1 1 0 0 1 1 1 1 1 0 0 1 -0.107 0.447 L 25 12 24.11 12.447 A 1 1 0 0 1 24 12 1 1 0 0 1 25 11" style="fill:#000;opacity:0.1;fill-opacity:1;stroke:none"/>
 <path d="m 24 9 a 2 2 0 0 0 -2 2 2 2 0 0 0 2 2 2 2 0 0 0 2 -2 2 2 0 0 0 -2 -2 z m 0 1 a 1 1 0 0 1 1 1 1 1 0 0 1 -1 1 1 1 0 0 1 -1 -1 1 1 0 0 1 1 -1 z" style="fill:#1a303e;opacity:1;fill-opacity:1;stroke:none"/>
 <path d="m 16 19.5 c 6 -3.5 10 -3.5 16 0 0 3.5 -0.944 17.324 -8 17.3 -7.06 -0.024 -8 -13.8 -8 -17.3" style="fill:url(#radialGradient4274);opacity:1;fill-opacity:1;stroke:none"/>
 <path d="m 20,13 4,-2 4,2 0,2 3,1 1,3.5 L 26,18 26,36.5 24,37 22,36.5 22,18 16,19.5 17,16 20,15 Z" style="fill:#1a303e;opacity:1;fill-opacity:1;stroke:none"/>
</svg>
